src/assets/icon-20-stack-active.svg

<?xml version="1.0" encoding="UTF-8"?>
<svg width="20px" height="20px" viewBox="0 0 20 20" version="1.1" xmlns="http://www.w3.org/2000/svg" xmlns:xlink="http://www.w3.org/1999/xlink">
    <g id="Assets" stroke="none" stroke-width="1" fill="none" fill-rule="evenodd">
        <g id="icon-20-stack-active">
            <path d="M18.1240001,10.539187 C18.1290001,10.5301918 18.1360001,10.522196 18.1420001,10.5132007 C18.1740001,10.4542319 18.2000001,10.3942636 18.2210001,10.3282984 C18.2470001,10.253338 18.2620001,10.1743797 18.2690001,10.0934225 C18.2700001,10.0704346 18.2820001,10.0524441 18.2820001,10.0294562 C18.2820001,10.0244589 18.2790001,10.020461 18.2790001,10.0174626 C18.2790001,10.0134647 18.2810001,10.0094668 18.2810001,10.0054689 C18.2800001,9.87953543 18.2490001,9.76059825 18.2040001,9.64665844 C18.2010001,9.63866266 18.1970001,9.63066688 18.1940001,9.62267111 C18.1050001,9.41278197 17.9540001,9.23087805 17.7450001,9.12193559 L17.7000001,9.12093612 C17.5680001,9.05796938 17.4240001,9.01599155 17.2670001,9.01599155 C17.1300001,9.01599155 17.0000001,9.04397677 16.8810001,9.0929509 L16.8720001,9.0929509 L15.1340001,10.0114657 L10.3310001,12.5501248 L5.52700011,10.0114657 L3.86200011,9.10794298 L3.84600011,9.10794298 C3.71200011,9.04397677 3.56600011,9 3.40800011,9 C3.24000011,9 3.08900011,9.0499736 2.95000011,9.12193559 L2.91600011,9.12193559 C2.58700011,9.29484426 2.38100011,9.63466477 2.38000011,10.0054689 C2.38000011,10.1443955 2.41700011,10.2773253 2.47100011,10.4012599 C2.47300011,10.4052577 2.47500011,10.4102551 2.47700011,10.4152525 C2.53000011,10.5301918 2.59600011,10.6391342 2.68800011,10.7270878 C2.68900011,10.7280872 2.69000011,10.7300862 2.69100011,10.7310856 C2.75600011,10.7930529 2.83100011,10.8480239 2.91300011,10.8910012 L2.98200011,10.9269822 C2.99700011,10.9349779 3.01000011,10.9439732 3.02600011,10.9509695 L9.86300011,14.5630616 C10.0090001,14.6410204 10.1700001,14.6799998 10.3310001,14.6799998 C10.4910001,14.6799998 10.6520001,14.6410204 10.7980001,14.5630616 L17.5790001,10.9799542 C17.8120001,10.9029948 17.9990001,10.7470772 18.1240001,10.539187" id="Fill-1" fill="#2C3230"></path>
            <path d="M18.0773333,14.539187 C18.0823333,14.5301918 18.0893333,14.522196 18.0953333,14.5132007 C18.1273333,14.4542319 18.1533333,14.3942636 18.1743333,14.3282984 C18.2003333,14.253338 18.2153333,14.1743797 18.2223333,14.0934225 C18.2233333,14.0704346 18.2353333,14.0524441 18.2353333,14.0294562 C18.2353333,14.0244589 18.2323333,14.020461 18.2323333,14.0174626 C18.2323333,14.0134647 18.2343333,14.0094668 18.2343333,14.0054689 C18.2333333,13.8795354 18.2023333,13.7605983 18.1573333,13.6466584 C18.1543333,13.6386627 18.1503333,13.6306669 18.1473333,13.6226711 C18.0583333,13.412782 17.9073333,13.2308781 17.6983333,13.1219356 L17.6533333,13.1209361 C17.5213333,13.0579694 17.3773333,13.0159916 17.2203333,13.0159916 C17.0833333,13.0159916 16.9533333,13.0439768 16.8343333,13.0929509 L16.8253333,13.0929509 L15.0873333,14.0114657 L10.2843333,16.5501248 L5.48033333,14.0114657 L3.81533333,13.107943 L3.79933333,13.107943 C3.66533333,13.0439768 3.51933333,13 3.36133333,13 C3.19333333,13 3.04233333,13.0499736 2.90333333,13.1219356 L2.86933333,13.1219356 C2.54033333,13.2948443 2.33433333,13.6346648 2.33333333,14.0054689 C2.33333333,14.1443955 2.37033333,14.2773253 2.42433333,14.4012599 C2.42633333,14.4052577 2.42833333,14.4102551 2.43033333,14.4152525 C2.48333333,14.5301918 2.54933333,14.6391342 2.64133333,14.7270878 C2.64233333,14.7280872 2.64333333,14.7300862 2.64433333,14.7310856 C2.70933333,14.7930529 2.78433333,14.8480239 2.86633333,14.8910012 L2.93533333,14.9269822 C2.95033333,14.9349779 2.96333333,14.9439732 2.97933333,14.9509695 L9.81633333,18.5630616 C9.96233333,18.6410204 10.1233333,18.6799998 10.2843333,18.6799998 C10.4443333,18.6799998 10.6053333,18.6410204 10.7513333,18.5630616 L17.5323333,14.9799542 C17.7653333,14.9029948 17.9523333,14.7470772 18.0773333,14.539187" id="Fill-1-Copy" fill="#2C3230"></path>
            <path d="M9.86588398,1.11598014 C10.1583328,0.961339952 10.5083339,0.961339952 10.8007827,1.11598014 L17.7507827,4.79098014 C18.4608502,5.16644751 18.4608502,6.18355249 17.7507827,6.55901986 L10.8007827,10.2340199 C10.5083339,10.38866 10.1583328,10.38866 9.86588398,10.2340199 L2.91588398,6.55901986 C2.20581645,6.18355249 2.20581645,5.16644751 2.91588398,4.79098014 L9.86588398,1.11598014 Z" id="Shape" fill="#50E3C2" fill-rule="nonzero"></path>
        </g>
    </g>
</svg>

<svg width="20" height="20" xmlns="http://www.w3.org/2000/svg"><g fill="none" fill-rule="evenodd"><path d="M18.124 10.54c.005-.01.012-.018.018-.027a1.05 1.05 0 0 0 .127-.42c.001-.023.013-.04.013-.064 0-.005-.003-.009-.003-.012l.002-.012a.994.994 0 0 0-.077-.358l-.01-.024a.991.991 0 0 0-.449-.501L17.7 9.12a.999.999 0 0 0-.433-.105c-.137 0-.267.028-.386.077h-.009l-1.738.918-4.803 2.54-4.804-2.54-1.665-.903h-.016A1.012 1.012 0 0 0 3.408 9a.987.987 0 0 0-.458.122h-.034a1.001 1.001 0 0 0-.536.883c0 .14.037.272.091.396l.006.014c.053.115.119.224.211.312l.003.004a.99.99 0 0 0 .222.16l.069.036c.015.008.028.017.044.024l6.837 3.612a.993.993 0 0 0 .935 0l6.781-3.583a.997.997 0 0 0 .545-.44" fill="#2C3230"/><path d="M18.077 14.54c.005-.01.012-.018.018-.027a1.05 1.05 0 0 0 .127-.42c.001-.023.013-.04.013-.064 0-.005-.003-.009-.003-.012l.002-.012a.994.994 0 0 0-.077-.358l-.01-.024a.991.991 0 0 0-.449-.501l-.045-.001a.999.999 0 0 0-.433-.105c-.137 0-.267.028-.386.077h-.009l-1.738.918-4.803 2.54-4.804-2.54-1.665-.903H3.8A1.012 1.012 0 0 0 3.361 13a.987.987 0 0 0-.458.122H2.87a1.001 1.001 0 0 0-.536.883c0 .14.037.272.091.396l.006.014c.053.115.12.224.211.312l.003.004a.99.99 0 0 0 .222.16l.07.036c.014.008.027.017.043.024l6.837 3.612a.993.993 0 0 0 .935 0l6.781-3.583a.997.997 0 0 0 .545-.44" fill="#2C3230"/><path d="M9.866 1.116a1 1 0 0 1 .935 0l6.95 3.675a1 1 0 0 1 0 1.768l-6.95 3.675a1 1 0 0 1-.935 0l-6.95-3.675a1 1 0 0 1 0-1.768l6.95-3.675z" fill="#50E3C2" fill-rule="nonzero"/></g></svg>
